X: 1
T: THE MORRIS REEL
S: MDT
O: Headington
P: A.(A2B2)4.A (6 dancers)
B: Morris Ring
Z: 2005 John Chambers <jc@trillian.mit.edu>
M: 2/2
L: 1/8
K: A
P: A
cB |\
AGAc eAcA | BAGF [e2E2]d2 | cdea fedc | BAGF [eE][fF][gF][eE] |
AGAc eAcA | BAGF [e2E2]d2 | c<ec<A f<dB<G | A2A2 A2 ||
P: B
|: cd |\
efec Acec | fdfd B2cd | efec AGAc | BAGF EFGE |
A[BF]Ac eAcA | BAGF E2d2 | cdea fdBG | A2A2 A2 :|
P: Alt.A7
  || cdea f<dB<G || y8 y8 y8 y8
